.icons/oomox-ad/16x16/apps/synfig_icon.svg

<svg xmlns="http://www.w3.org/2000/svg" width="16" height="16" version="1.1">
 <path style="fill:#0278dc" d="M 8.0213381,4.1976121e-4 C 7.9683811,-0.00118024 7.917221,0.01911976 7.8805594,0.05619976 7.3515904,0.59128976 6.8139742,1.1916798 6.3280882,1.7631528 c -5.65e-4,7.17e-4 -0.00112,0.0014 -0.00167,0.0022 -1.1973437,1.4475237 -2.1074289,2.9348464 -2.7669655,4.5273297 -0.6143805,1.4834513 -0.9735914,2.666507 -1.300523,4.5359135 -0.071594,0.409369 -0.1439404,0.905421 -0.1938503,1.304584 -0.024956,0.199581 -0.044331,0.374682 -0.055306,0.50418 -0.00548,0.06475 -0.00869,0.117868 -0.00949,0.160841 -4.059e-4,0.02147 -4.701e-4,0.0394 0.00167,0.06173 0.00107,0.01115 0.00208,0.02309 0.00782,0.04332 0.00574,0.02022 0.00106,0.06132 0.084914,0.111559 0.045252,0.0271 0.051342,0.02177 0.062569,0.02438 0.011225,0.0026 0.019922,0.0045 0.029049,0.006 0.018255,0.0029 0.03764,0.0048 0.059775,0.007 0.044268,0.0046 0.099084,0.0088 0.1569789,0.01194 2.5969315,0.935947 3.5969263,1.935943 5.5969158,2.935528 1.99999,-0.999585 2.9999839,-1.999581 5.7077959,-2.951353 l 0.120668,-0.0098 c 0.097,-0.0079 0.17159,-0.08651 0.171503,-0.180876 v -0.06874 c 10e-7,-0.143383 -0.03519,-0.439522 -0.08267,-0.806362 -0.04749,-0.366835 -0.108223,-0.78437 -0.163129,-1.101501 -0.326546,-1.8862138 -0.6978,-3.1144296 -1.320076,-4.6166027 -0.560585,-1.3532492 -1.363139,-2.7202331 -2.322283,-3.957619 -0.0022,-0.00278 -0.0044,-0.00547 -0.0067,-0.00813 C 9.4594679,1.5578938 8.8349677,0.78031276 8.1537393,0.05945376 c -0.034088,-0.03622 -0.08185,-0.05751 -0.1323985,-0.0590299988 z"/>
 <path style="fill:#48a0f8;fill-rule:evenodd" d="M 8.021487,8.3178969e-5 C 7.96853,-0.00151682 7.9175243,0.01964318 7.8808627,0.05672318 7.431763,0.51102018 6.987126,1.0151582 6.5625101,1.5059342 L 8.0039089,10.257842 9.4335892,1.5117932 c -0.00716,-0.0084 -0.014322,-0.01695 -0.021484,-0.02539 C 9.0022696,1.0032372 8.5902088,0.51994418 8.1542991,0.05867618 8.1202121,0.02245618 8.0720361,0.00159618 8.0214873,8.6178969e-5 Z M 8.003909,10.257843 12.394511,6.2070828 C 12.093345,5.49555 11.722915,4.7824549 11.300767,4.086 Z m 0,0 5.433566,-0.8183548 C 13.303815,8.8607551 13.153171,8.3187384 12.982399,7.7930123 Z m 0,0 5.806611,2.78319 h 0.002 l 0.01563,-0.002 c 0.097,-0.0079 0.171961,-0.08728 0.171874,-0.181639 v -0.05859 c 0,-0.0017 10e-6,-0.008 0,-0.0098 -8.33e-4,-0.144796 -0.03514,-0.43364 -0.08203,-0.794917 -0.02393,-0.184123 -0.05384,-0.362211 -0.08203,-0.552733 v -0.0078 c -0.02133,-0.144797 -0.04114,-0.290639 -0.0625,-0.419919 z m 0,0 2.335926,4.398415 c 0.426196,-0.256034 0.884603,-0.511344 1.38671,-0.763668 z m 0,0 -0.9882762,5.197239 c 0.3130642,0.181341 0.620819,0.363218 0.98437,0.544919 0.3479043,-0.173881 0.6417158,-0.347832 0.9433545,-0.521481 z m 0,0 -3.6777155,3.648419 c 0.4239264,0.218004 0.8243109,0.43636 1.1933532,0.6582 z m 0,0 -5.7597362,0.691403 c -0.065764,0.386759 -0.1338215,0.829662 -0.1796866,1.195306 -0.024476,0.195121 -0.043594,0.363883 -0.054687,0.492186 -2.175e-4,0.0025 2.111e-4,0.0073 0,0.0098 -0.0049,0.05956 -0.00901,0.111949 -0.00977,0.152343 -2.62e-5,0.0014 2.28e-5,0.0025 0,0.0039 -1.16e-5,5.24e-4 1.09e-5,0.0014 0,0.002 0,0 0,0.002 0,0.002 -2.2e-4,0.01746 1.344e-4,0.0338 0.00195,0.05273 0.00107,0.01115 0.00207,0.02271 0.00781,0.04297 0.00287,0.01013 0.00363,0.0258 0.013672,0.04492 0.01004,0.01912 0.028383,0.04128 0.070312,0.06641 0.045252,0.0271 0.053226,0.02278 0.064453,0.02539 0.011225,0.0026 0.018216,0.0044 0.027344,0.0059 0.018255,0.0029 0.038413,0.0055 0.060547,0.0078 0.044268,0.0046 0.098355,0.0086 0.1562492,0.01172 0.098829,0.03562 0.181043,0.07162 0.2753892,0.107421 z m 0,0 L 3.0215127,7.7930123 C 2.8575686,8.2964038 2.7113799,8.8154725 2.5820617,9.369176 Z m 0,0 L 4.7187696,4.0508439 C 4.3198489,4.7050669 3.9736461,5.3752307 3.673853,6.0625524 Z"/>
</svg>

<svg xmlns="http://www.w3.org/2000/svg" width="16" height="16" version="1.1" viewBox="0 0 4.23 4.23">
 <path style="fill:#0278dc" d="M 2.1223185,6.9098422e-5 C 2.108307,-3.4689941e-4 2.0947707,0.00501667 2.0850706,0.01482742 1.9451135,0.15640429 1.8028685,0.31525818 1.6743105,0.46646119 c -1.495e-4,1.898e-4 -2.971e-4,3.81e-4 -4.425e-4,5.72e-4 C 1.3570692,0.8500258 1.1162746,1.2435486 0.9417713,1.6648953 0.77921564,2.0573938 0.68417394,2.3704122 0.59767283,2.8650285 c -0.0189427,0.1083129 -0.0380844,0.2395607 -0.0512898,0.3451731 -0.006603,0.052806 -0.0117292,0.099135 -0.0146332,0.1333982 -0.001451,0.017132 -0.002299,0.031186 -0.002512,0.042556 -1.074e-4,0.00568 -1.2439e-4,0.010424 4.425e-4,0.016334 2.8395e-4,0.00295 5.5124e-4,0.00611 0.00207,0.011463 0.001519,0.00535 2.7937e-4,0.016223 0.0224669,0.029517 0.011973,0.00717 0.0135843,0.00576 0.0165547,0.00645 0.00297,6.92e-4 0.005271,0.0012 0.007686,0.00158 0.00483,7.64e-4 0.009959,0.00126 0.0158156,0.00186 0.0117127,0.00121 0.0262162,0.00234 0.0415342,0.00316 C 1.3229167,3.7041666 1.5875,3.9687501 2.1166666,4.2332251 2.6458333,3.9687501 2.9104166,3.7041666 3.6268622,3.4523423 l 0.031927,-0.00258 c 0.025665,-0.00208 0.0454,-0.02289 0.045377,-0.047857 v -0.018187 c 3e-7,-0.037937 -0.00931,-0.116291 -0.021874,-0.2133511 C 3.6697268,3.0733082 3.6536581,2.962835 3.6391306,2.878927 3.5527317,2.3798636 3.4545036,2.0548965 3.2898587,1.6574445 3.1415366,1.2993955 2.9291931,0.9377125 2.6754183,0.61031913 c -5.7e-4,-7.36e-4 -0.00116,-0.001448 -0.00177,-0.002152 C 2.5028249,0.4121514 2.3375917,0.20641535 2.1573491,0.01568714 2.14833,0.00610503 2.1356929,4.7069633e-4 2.1223185,6.9098422e-5 Z"/>
 <path style="fill:#48a0f8;fill-rule:evenodd" transform="scale(0.26458333)" d="M 8.0214844 0 C 7.9685271 -0.0015719918 7.9175212 0.019560436 7.8808594 0.056640625 C 7.4317574 0.51094017 6.9871181 1.0150808 6.5625 1.5058594 L 8.0039062 10.257812 L 9.4335938 1.5117188 C 9.4264325 1.5032743 9.419272 1.4947723 9.4121094 1.4863281 C 9.0022717 1.0031603 8.5902088 0.51986438 8.1542969 0.05859375 C 8.1202093 0.022377901 8.0720333 0.0015178321 8.0214844 0 z M 8.0039062 10.257812 L 12.394531 6.2070312 C 12.093363 5.4954947 11.722932 4.782396 11.300781 4.0859375 L 8.0039062 10.257812 z M 8.0039062 10.257812 L 13.4375 9.4394531 C 13.30384 8.8607171 13.153195 8.3186976 12.982422 7.7929688 L 8.0039062 10.257812 z M 8.0039062 10.257812 L 13.810547 13.041016 L 13.8125 13.041016 L 13.828125 13.039062 C 13.925127 13.031201 14.000087 12.951785 14 12.857422 L 14 12.798828 C 14 12.797111 14.00001 12.790823 14 12.789062 C 13.999167 12.644266 13.964862 12.35542 13.917969 11.994141 C 13.894044 11.810017 13.864133 11.631928 13.835938 11.441406 L 13.835938 11.433594 C 13.814608 11.288796 13.794798 11.142953 13.773438 11.013672 L 8.0039062 10.257812 z M 8.0039062 10.257812 L 10.339844 14.65625 C 10.766043 14.400214 11.224452 14.144903 11.726562 13.892578 L 8.0039062 10.257812 z M 8.0039062 10.257812 L 7.015625 15.455078 C 7.3286908 15.63642 7.6364471 15.818298 8 16 C 8.3479062 15.826118 8.6417192 15.652166 8.9433594 15.478516 L 8.0039062 10.257812 z M 8.0039062 10.257812 L 4.3261719 13.90625 C 4.7501005 14.124255 5.150487 14.342612 5.5195312 14.564453 L 8.0039062 10.257812 z M 8.0039062 10.257812 L 2.2441406 10.949219 C 2.1783765 11.33598 2.1103184 11.778885 2.0644531 12.144531 C 2.0399767 12.339653 2.0208593 12.508416 2.0097656 12.636719 C 2.0095481 12.639234 2.0099767 12.644002 2.0097656 12.646484 C 2.0048683 12.706041 2.0007567 12.758434 2 12.798828 C 1.9999738 12.800212 2.0000228 12.801378 2 12.802734 C 1.9999884 12.803258 2.0000109 12.804166 2 12.804688 C 2 12.804688 2 12.806641 2 12.806641 C 1.99978 12.824102 2.0001344 12.840443 2.0019531 12.859375 C 2.0030256 12.870525 2.0040234 12.882089 2.0097656 12.902344 C 2.0126362 12.912473 2.0133972 12.928148 2.0234375 12.947266 C 2.0334778 12.966383 2.0518209 12.988551 2.09375 13.013672 C 2.1390019 13.040771 2.1469764 13.036455 2.1582031 13.039062 C 2.1694283 13.041662 2.1764193 13.043486 2.1855469 13.044922 C 2.203802 13.047802 2.2239597 13.050467 2.2460938 13.052734 C 2.2903622 13.057308 2.3444489 13.061354 2.4023438 13.064453 C 2.5011729 13.100073 2.5833877 13.136073 2.6777344 13.171875 L 8.0039062 10.257812 z M 8.0039062 10.257812 L 3.0214844 7.7929688 C 2.8575395 8.2963629 2.71135 8.8154342 2.5820312 9.3691406 L 8.0039062 10.257812 z M 8.0039062 10.257812 L 4.71875 4.0507812 C 4.3198273 4.7050076 3.9736227 5.3751748 3.6738281 6.0625 L 8.0039062 10.257812 z"/>
</svg>
